X:3
T:Watchmaker, The
T:John Gaffney's Fling
T:Niel Gow's Highland
T:Neil Gow's Second Wife
R:highland
C:Daniel McLaren (Edinburgh, Scotland) or maybe Niel Gow, Scotland (1727-1807)
D:Altan: Horse with a Heart
D:Patrick Street: Irish Times
Z:id:hn-hf-3
M:C|
K:Ador
c<AAc B<GGB|c<AAB cded|c<AAc B<GGB|(3cBA BG E<AAB:|
c2ec gcec|G2BG dGBG|c2ec gcec|e<aag e<aab|
g<eeg f<ddf|ecce dBGB|ABcd e=fed|(3cBA BG E<AAB||

